src/assets/icons/note.svg

<svg width="24" height="24" viewBox="0 0 24 24" fill="none" xmlns="http://www.w3.org/2000/svg">
<path d="M16 4.25C16 5.49 14.99 6.5 13.75 6.5H10.25C9.63 6.5 9.07 6.25 8.66 5.84C8.25 5.43 8 4.87 8 4.25C8 3.01 9.01 2 10.25 2H13.75C14.37 2 14.93 2.25 15.34 2.66C15.75 3.07 16 3.63 16 4.25Z" fill="#47BAB8"/>
<path d="M18.83 5.03021C18.6 4.84021 18.34 4.69021 18.06 4.58021C17.77 4.47021 17.48 4.70021 17.42 5.00021C17.08 6.71021 15.57 8.00021 13.75 8.00021H10.25C9.25 8.00021 8.31 7.61021 7.6 6.90021C7.08 6.38021 6.72 5.72021 6.58 5.01021C6.52 4.71021 6.22 4.47021 5.93 4.59021C4.77 5.06021 4 6.12021 4 8.25021V18.0002C4 21.0002 5.79 22.0002 8 22.0002H16C18.21 22.0002 20 21.0002 20 18.0002V8.25021C20 6.62021 19.55 5.62021 18.83 5.03021ZM8 12.2502H12C12.41 12.2502 12.75 12.5902 12.75 13.0002C12.75 13.4102 12.41 13.7502 12 13.7502H8C7.59 13.7502 7.25 13.4102 7.25 13.0002C7.25 12.5902 7.59 12.2502 8 12.2502ZM16 17.7502H8C7.59 17.7502 7.25 17.4102 7.25 17.0002C7.25 16.5902 7.59 16.2502 8 16.2502H16C16.41 16.2502 16.75 16.5902 16.75 17.0002C16.75 17.4102 16.41 17.7502 16 17.7502Z" fill="#47BAB8"/>
</svg>

<svg xmlns="http://www.w3.org/2000/svg" width="24" height="24" fill="none"><path fill="#47BAB8" d="M16 4.25c0 1.24-1.01 2.25-2.25 2.25h-3.5c-.62 0-1.18-.25-1.59-.66C8.25 5.43 8 4.87 8 4.25 8 3.01 9.01 2 10.25 2h3.5c.62 0 1.18.25 1.59.66.41.41.66.97.66 1.59Z"/><path fill="#47BAB8" d="M18.83 5.03a2.83 2.83 0 0 0-.77-.45c-.29-.11-.58.12-.64.42-.34 1.71-1.85 3-3.67 3h-3.5c-1 0-1.94-.39-2.65-1.1a3.7 3.7 0 0 1-1.02-1.89c-.06-.3-.36-.54-.65-.42C4.77 5.06 4 6.12 4 8.25V18c0 3 1.79 4 4 4h8c2.21 0 4-1 4-4V8.25c0-1.63-.45-2.63-1.17-3.22ZM8 12.25h4c.41 0 .75.34.75.75s-.34.75-.75.75H8c-.41 0-.75-.34-.75-.75s.34-.75.75-.75Zm8 5.5H8c-.41 0-.75-.34-.75-.75s.34-.75.75-.75h8c.41 0 .75.34.75.75s-.34.75-.75.75Z"/></svg>
